assets/svg/1F640.svg

<svg xmlns="http://www.w3.org/2000/svg" viewBox="0 0 64 64" enable-background="new 0 0 64 64"><path fill="#7094a6" d="m49.762 10.667c-.989 4.137 9.02 12.775 11.93 13.47 2.914.695 1.562-8.16 1.425-13.12-.136-5.11-.014-10.275-2.922-10.97-2.913-.693-9.45 6.485-10.433 10.621"/><path fill="#eda75a" d="m50.26 13.897c-.86 3.591 7.833 11.09 10.359 11.696 2.529.601 1.355-7.088 1.238-11.394-.122-4.435-.016-8.921-2.544-9.525-2.525-.604-8.2 5.632-9.05 9.223"/><path fill="#7094a6" d="m14.12 10.667c.991 4.137-9.02 12.775-11.929 13.47-2.912.695-1.56-8.16-1.427-13.12.144-5.11.016-10.275 2.93-10.97 2.909-.693 9.443 6.485 10.426 10.621"/><path fill="#eda75a" d="m13.843 13.897c.855 3.591-7.834 11.09-10.361 11.696-2.528.601-1.355-7.088-1.239-11.393.124-4.435.014-8.921 2.541-9.525 2.528-.605 8.201 5.631 9.06 9.222"/><path fill="#87b1c1" d="M63.55,31.429c0,17.551-14.224,31.773-31.777,31.773C14.221,63.202,0,48.98,0,31.429    S14.221,1.664,31.773,1.664C49.326,1.664,63.55,13.878,63.55,31.429z"/><path fill="#7094a6" d="m15.12 40.719c-5.63-12.08-5.277-24.05-.187-34.804-8.857 4.807-14.933 14.411-14.933 25.514 0 17.551 14.221 31.773 31.773 31.773.316 0 .618-.035.932-.047-7.285-6.129-13.425-13.507-17.585-22.436"/><g fill="#fff"><path d="m54.3 16.29c0 5.106-1.987 9.245-6.921 9.245-4.932 0-10.944-4.139-10.944-9.245 0-5.108 4-9.245 8.935-9.245 4.933 0 8.93 4.137 8.93 9.245"/><path d="m27.11 16.29c0 5.106-6 9.245-10.938 9.245-4.933 0-6.927-4.139-6.927-9.245 0-5.108 4-9.245 8.937-9.245 4.933 0 8.928 4.137 8.928 9.245"/></g><path fill="#87b1c1" d="m20.232 48.18c0 10.676-3.991 13.376-8.929 13.376-4.936 0-4.914-3.979-4.914-11.366 0-7.39-6.46-20.03 4.914-15.385 4.571 1.864 8.929 5.985 8.929 13.375"/><path fill="#fff" d="m11.303 63.06c-3 0-4.88-1.285-5.734-3.933-.687-2.127-.687-5.092-.687-8.844 0-1.967-.469-4.313-.922-6.578-.85-4.255-1.585-7.924.14-10.03.516-.628 1.495-1.377 3.23-1.377 1.225 0 2.712.361 4.545 1.11 6.268 2.56 9.865 7.942 9.865 14.771-.0001 10.02-3.413 14.883-10.437 14.883m-3.973-27.75c-.671 0-.844.208-.899.275-.82 1-.098 4.619.485 7.527.482 2.41.981 4.906.981 7.07 0 3.585 0 6.339.542 8.02.387 1.195.956 1.845 2.865 1.845 3.456 0 7.422-1.349 7.422-11.869 0-7.588-5.01-10.763-7.991-11.979-1.443-.589-2.589-.888-3.405-.888"/><path fill="#87b1c1" d="m43.18 48.18c0 10.676 3.992 13.376 8.93 13.376 4.933 0 4.913-3.979 4.913-11.366 0-7.39 6.46-20.03-4.913-15.385-4.572 1.864-8.93 5.985-8.93 13.375"/><path fill="#fff" d="m52.11 63.06c-7.02 0-10.437-4.868-10.437-14.883 0-6.828 3.596-12.211 9.867-14.771 1.831-.75 3.316-1.11 4.543-1.11 1.732 0 2.714.749 3.229 1.377 1.726 2.108.991 5.777.14 10.03-.453 2.265-.922 4.611-.922 6.481 0 3.845 0 6.81-.688 8.938-.854 2.649-2.728 3.936-5.732 3.936m3.974-27.75c-.816 0-1.961.299-3.405.888-2.982 1.217-7.99 4.392-7.99 11.979 0 10.521 3.966 11.869 7.422 11.869 1.907 0 2.48-.649 2.864-1.847.542-1.676.542-4.436.542-7.924 0-2.257.498-4.753.981-7.163.581-2.908 1.307-6.524.484-7.527-.056-.066-.225-.275-.898-.275"/><path fill="#25333a" d="m41.548 50.52c0 8.818-3.959 8.654-9.355 8.654-5.396 0-10.191.164-10.191-8.654 0-8.819 4.375-15.966 9.775-15.966 5.396.0001 9.771 7.147 9.771 15.966"/><path fill="#778b91" d="m26.349 27.983c-.043.755-.563 1.34-1.166 1.307l-16.935-.957c-.599-.035-1.052-.675-1.01-1.43l0 0c.043-.756.565-1.34 1.164-1.307l16.938.958c.599.032 1.051.674 1.01 1.429l0 0"/><path fill="#5e7d89" d="m25.682 31.16c.124.712-.179 1.36-.673 1.446l-13.996 2.425c-.494.086-.997-.42-1.12-1.134l0 0c-.124-.711.178-1.358.673-1.445l13.996-2.425c.494-.086.994.42 1.12 1.133l0 0"/><g fill="#778b91"><path d="m37.2 27.924c.043.756.562 1.34 1.163 1.307l16.938-.958c.599-.036 1.052-.675 1.01-1.431l0 0c-.043-.755-.565-1.34-1.164-1.307l-16.938.958c-.6.034-1.052.676-1.01 1.431l0 0"/><path d="m37.864 31.1c-.124.712.179 1.36.673 1.446l13.996 2.426c.494.086.996-.42 1.12-1.135l0 0c.124-.71-.179-1.358-.673-1.444l-13.996-2.426c-.494-.086-.997.42-1.12 1.133l0 0"/></g><path fill="#394c54" d="m26.354 24.22c0-2.579 2.194-2.532 5.183-2.532 2.997 0 5.658-.047 5.658 2.532 0 2.583-2.43 4.674-5.422 4.674s-5.419-2.092-5.419-4.674"/></svg>

<?xml version="1.0" encoding="UTF-8" standalone="no"?>
<!-- Generator: Adobe Illustrator 16.0.0, SVG Export Plug-In . SVG Version: 6.00 Build 0)  -->

<svg
   xmlns:dc="http://purl.org/dc/elements/1.1/"
   xmlns:cc="http://creativecommons.org/ns#"
   xmlns:rdf="http://www.w3.org/1999/02/22-rdf-syntax-ns#"
   xmlns:svg="http://www.w3.org/2000/svg"
   xmlns="http://www.w3.org/2000/svg"
   xmlns:sodipodi="http://sodipodi.sourceforge.net/DTD/sodipodi-0.dtd"
   xmlns:inkscape="http://www.inkscape.org/namespaces/inkscape"
   version="1.1"
   id="Layer_1"
   x="0px"
   y="0px"
   width="64px"
   height="64px"
   viewBox="0 0 64 64"
   enable-background="new 0 0 64 64"
   xml:space="preserve"
   inkscape:version="0.48.5 r10040"
   sodipodi:docname="1F640.svg"
   inkscape:export-filename="D:\TESTINGEMOJI\SVGTEST\1F640.png"
   inkscape:export-xdpi="90"
   inkscape:export-ydpi="90"><metadata
   id="metadata8144"><rdf:RDF><cc:Work
       rdf:about=""><dc:format>image/svg+xml</dc:format><dc:type
         rdf:resource="http://purl.org/dc/dcmitype/StillImage" /><dc:title></dc:title></cc:Work></rdf:RDF></metadata><defs
   id="defs8142" /><sodipodi:namedview
   pagecolor="#ffffff"
   bordercolor="#666666"
   borderopacity="1"
   objecttolerance="10"
   gridtolerance="10"
   guidetolerance="10"
   inkscape:pageopacity="0"
   inkscape:pageshadow="2"
   inkscape:window-width="640"
   inkscape:window-height="480"
   id="namedview8140"
   showgrid="false"
   inkscape:zoom="3.6875"
   inkscape:cx="32"
   inkscape:cy="32"
   inkscape:window-x="567"
   inkscape:window-y="306"
   inkscape:window-maximized="0"
   inkscape:current-layer="Layer_1" />
<g
   id="g8074">
	<g
   id="g8076">
		<path
   fill="#7094A6"
   d="M49.762,10.667c-0.989,4.137,9.021,12.775,11.93,13.47c2.914,0.695,1.562-8.16,1.425-13.121    c-0.136-5.11-0.014-10.275-2.922-10.97C57.282-0.647,50.745,6.531,49.762,10.667z"
   id="path8078" />
	</g>
	<g
   id="g8080">
		<path
   fill="#EDA75A"
   d="M50.257,13.897c-0.86,3.591,7.833,11.091,10.359,11.696c2.529,0.601,1.355-7.088,1.238-11.394    c-0.122-4.435-0.016-8.921-2.544-9.525C56.785,4.07,51.11,10.306,50.257,13.897z"
   id="path8082" />
	</g>
	<g
   id="g8084">
		<path
   fill="#7094A6"
   d="M14.115,10.667c0.991,4.137-9.019,12.775-11.929,13.47c-2.912,0.695-1.56-8.16-1.427-13.121    c0.144-5.11,0.016-10.275,2.93-10.97C6.598-0.647,13.132,6.531,14.115,10.667z"
   id="path8086" />
	</g>
	<g
   id="g8088">
		<path
   fill="#EDA75A"
   d="M13.843,13.897c0.855,3.591-7.834,11.091-10.361,11.696C0.954,26.194,2.127,18.505,2.243,14.2    c0.124-4.435,0.014-8.921,2.541-9.525C7.312,4.07,12.985,10.306,13.843,13.897z"
   id="path8090" />
	</g>
	<g
   id="g8092">
		<path
   fill="#87B1C1"
   d="M63.55,31.429c0,17.551-14.224,31.773-31.777,31.773C14.221,63.202,0,48.98,0,31.429    S14.221,1.664,31.773,1.664C49.326,1.664,63.55,13.878,63.55,31.429z"
   id="path8094" />
	</g>
	<g
   id="g8096">
		<path
   fill="#7094A6"
   d="M15.12,40.719c-5.63-12.08-5.277-24.054-0.187-34.804C6.076,10.722,0,20.326,0,31.429    C0,48.98,14.221,63.202,31.773,63.202c0.316,0,0.618-0.035,0.932-0.047C25.42,57.026,19.28,49.648,15.12,40.719z"
   id="path8098" />
	</g>
	<g
   id="g8100">
		<path
   fill="#FFFFFF"
   d="M54.299,16.29c0,5.106-1.987,9.245-6.921,9.245c-4.932,0-10.944-4.139-10.944-9.245    c0-5.108,4.003-9.245,8.935-9.245C50.302,7.045,54.299,11.182,54.299,16.29z"
   id="path8102" />
	</g>
	<g
   id="g8104">
		<path
   fill="#FFFFFF"
   d="M27.112,16.29c0,5.106-6.005,9.245-10.938,9.245c-4.933,0-6.927-4.139-6.927-9.245    c0-5.108,4.003-9.245,8.937-9.245C23.117,7.045,27.112,11.182,27.112,16.29z"
   id="path8106" />
	</g>
	<g
   id="g8108">
		<g
   id="g8110">
			<path
   fill="#87B1C1"
   d="M20.232,48.18c0,10.676-3.991,13.376-8.929,13.376c-4.936,0-4.914-3.979-4.914-11.366     c0-7.39-6.46-20.032,4.914-15.385C15.874,36.669,20.232,40.79,20.232,48.18z"
   id="path8112" />
			<path
   fill="#FFFFFF"
   d="M11.303,63.062c-3.004,0-4.88-1.285-5.734-3.933c-0.687-2.127-0.687-5.092-0.687-8.844     c0-1.967-0.469-4.313-0.922-6.578c-0.85-4.255-1.585-7.924,0.14-10.032c0.516-0.628,1.495-1.377,3.23-1.377     c1.225,0,2.712,0.361,4.545,1.11c6.268,2.56,9.865,7.942,9.865,14.771C21.739,58.194,18.327,63.062,11.303,63.062z M7.33,35.312     c-0.671,0-0.844,0.208-0.899,0.275c-0.82,1.003-0.098,4.619,0.485,7.527c0.482,2.41,0.981,4.906,0.981,7.074     c0,3.585,0,6.339,0.542,8.015c0.387,1.195,0.956,1.845,2.865,1.845c3.456,0,7.422-1.349,7.422-11.869     c0-7.588-5.006-10.763-7.991-11.979C9.292,35.611,8.146,35.312,7.33,35.312z"
   id="path8114" />
		</g>
	</g>
	<g
   id="g8116">
		<g
   id="g8118">
			<path
   fill="#87B1C1"
   d="M43.178,48.18c0,10.676,3.992,13.376,8.93,13.376c4.933,0,4.913-3.979,4.913-11.366     c0-7.39,6.46-20.032-4.913-15.385C47.536,36.669,43.178,40.79,43.178,48.18z"
   id="path8120" />
			<path
   fill="#FFFFFF"
   d="M52.107,63.062c-7.021,0-10.437-4.868-10.437-14.883c0-6.828,3.596-12.211,9.867-14.771     c1.831-0.75,3.316-1.11,4.543-1.11c1.732,0,2.714,0.749,3.229,1.377c1.726,2.108,0.991,5.777,0.14,10.032     c-0.453,2.265-0.922,4.611-0.922,6.481c0,3.845,0,6.81-0.688,8.938C56.985,61.775,55.111,63.062,52.107,63.062z M56.081,35.312     c-0.816,0-1.961,0.299-3.405,0.888c-2.982,1.217-7.99,4.392-7.99,11.979c0,10.521,3.966,11.869,7.422,11.869     c1.907,0,2.48-0.649,2.864-1.847c0.542-1.676,0.542-4.436,0.542-7.924c0-2.257,0.498-4.753,0.981-7.163     c0.581-2.908,1.307-6.524,0.484-7.527C56.923,35.521,56.754,35.312,56.081,35.312z"
   id="path8122" />
		</g>
	</g>
	<g
   id="g8124">
		<path
   fill="#25333A"
   d="M41.548,50.523c0,8.818-3.959,8.654-9.355,8.654c-5.396,0-10.191,0.164-10.191-8.654    c0-8.819,4.375-15.966,9.775-15.966C37.173,34.558,41.548,41.704,41.548,50.523z"
   id="path8126" />
	</g>
	<path
   fill="#778B91"
   d="M26.349,27.983c-0.043,0.755-0.563,1.34-1.166,1.307L8.248,28.333c-0.599-0.035-1.052-0.675-1.009-1.43l0,0   c0.043-0.756,0.565-1.34,1.164-1.307l16.938,0.958C25.94,26.586,26.392,27.228,26.349,27.983L26.349,27.983z"
   id="path8128" />
	<path
   fill="#5E7D89"
   d="M25.682,31.157c0.124,0.712-0.179,1.36-0.673,1.446l-13.996,2.425c-0.494,0.086-0.997-0.42-1.12-1.134l0,0   c-0.124-0.711,0.178-1.358,0.673-1.445l13.996-2.425C25.056,29.938,25.556,30.444,25.682,31.157L25.682,31.157z"
   id="path8130" />
	<path
   fill="#778B91"
   d="M37.197,27.924c0.043,0.756,0.562,1.34,1.163,1.307l16.938-0.958c0.599-0.036,1.052-0.675,1.009-1.431l0,0   c-0.043-0.755-0.565-1.34-1.164-1.307l-16.938,0.958C37.605,26.527,37.153,27.169,37.197,27.924L37.197,27.924z"
   id="path8132" />
	<path
   fill="#778B91"
   d="M37.864,31.098c-0.124,0.712,0.179,1.36,0.673,1.446l13.996,2.426c0.494,0.086,0.996-0.42,1.12-1.135l0,0   c0.124-0.71-0.179-1.358-0.673-1.444l-13.996-2.426C38.49,29.879,37.987,30.385,37.864,31.098L37.864,31.098z"
   id="path8134" />
	<g
   id="g8136">
		<path
   fill="#394C54"
   d="M26.354,24.22c0-2.579,2.194-2.532,5.183-2.532c2.997,0,5.658-0.047,5.658,2.532    c0,2.583-2.43,4.674-5.422,4.674S26.354,26.802,26.354,24.22z"
   id="path8138" />
	</g>
</g>
</svg>
